X: 85
T:Schottische
M:4/4
L:1/8
R:Schottische
K:Gm
D|GAGF G2A2|BcBA B2c2|dedc dedc|d6:|d2|:d2dd d2dd|d2c2f4|c2d2B2G2|G4G4:|
